client/img/icon/solid/trash.svg

<?xml version="1.0" encoding="UTF-8"?>
<svg width="32px" height="32px" viewBox="0 0 32 32" version="1.1" xmlns="http://www.w3.org/2000/svg" xmlns:xlink="http://www.w3.org/1999/xlink">
    <!-- Generator: sketchtool 47 (45396) - http://www.bohemiancoding.com/sketch -->
    <title>icon/solid/trash</title>
    <desc>Created with sketchtool.</desc>
    <defs>
        <path d="M11,13 L21,13 L21.002,23 L11,23 L11,13 Z M9,23 L9,11 L23,11 L23,23 C23,24.103 22.103,25 21,25 L11,25 C9.897,25 9,24.103 9,23 Z M19,8 L25,8 L25,10 L7,10 L7,8 L13,8 L13,6 L19,6 L19,8 Z M13,20.9995 L15,20.9995 L15,14.9995 L13,14.9995 L13,20.9995 Z M17,20.9995 L19,20.9995 L19,14.9995 L17,14.9995 L17,20.9995 Z" id="path-1"></path>
    </defs>
    <g id="Symbols" stroke="none" stroke-width="1" fill="none" fill-rule="evenodd">
        <g id="icon/solid/trash">
            <mask id="mask-2" fill="white">
                <use xlink:href="#path-1"></use>
            </mask>
            <use id="trash" fill="#000000" xlink:href="#path-1"></use>
            <g id="color/solid/primary" mask="url(#mask-2)" fill="#4A90E2">
                <g transform="translate(-22.000000, -25.000000)" id="color">
                    <rect x="0" y="0" width="80" height="80"></rect>
                </g>
            </g>
        </g>
    </g>
</svg>

<?xml version="1.0" encoding="utf-8"?>
<!-- Generator: Adobe Illustrator 23.0.0, SVG Export Plug-In . SVG Version: 6.00 Build 0)  -->
<svg version="1.1" id="Layer_1" xmlns="http://www.w3.org/2000/svg" xmlns:xlink="http://www.w3.org/1999/xlink" x="0px" y="0px"
	 viewBox="0 0 32 32" style="enable-background:new 0 0 32 32;" xml:space="preserve">
<style type="text/css">
	.st0{fill-rule:evenodd;clip-rule:evenodd;}
</style>
<g>
	<path class="st0" d="M11,13h10l0,10H11V13z M9,23V11h14v12c0,1.1-0.9,2-2,2H11C9.9,25,9,24.1,9,23z M19,8h6v2H7V8h6V6h6V8z M13,21
		h2v-6h-2V21z M17,21h2v-6h-2V21z"/>
</g>
</svg>
